!!!!SEGMENT: pl-wtm--670-sp-3678--001-003_kleinmichel-richard--piosenki-dla-mlodocianego-wieku-piotr-maszynski-3-kolysanka.krn
!!!cenid: 18xx:4755
!!!COM: Kleinmichel, Richard
!!!COM-rismID: pe22053
!!!CDT: 1846/12/31-1901/08/18
!!!CNT: Polish; German
!!!GTL: Piosenki dla młodocianego wieku (Piotr Maszyński)
!!!OTL: 3. Kołysanka
!!!OMV: 003
!!!PDT: 1871
!!!AGN: Secular; Song; Children
!!!YEC: Copyright 2022 Narodowy Instytut Fryderyka Chopina (https://polishscores.org)
!!!YEM: License CC-BY-4.0 (https://creativecommons.org/licenses/by/4.0)
!!!SMS-siglum: PL-Wtm
!!!SMS-shelfmark: 670 śp 3678
!!!SMS-variant:
!!!SMS-altvar:
!!!SMS-shelfwork: 001-003 G
!!!NIFC-rismSourceID: 1001185478
!!!NIFC-rismChildID: 1001185478
!!!NIFC-islandoraID: pl-wtm:57754
!!!URL-pdf-islandora: https://repozytorium.nifc.pl/islandora/object/pl-wtm%3A57754/datastream/PDF/view
!!!URL-scan: https://polish.musicsources.pl/pl/lokalizacje/galeria/druki-muzyczne/19483/4 @EN{Scan on Polish Music Sources Website} @PL{Skany w portalu Dziedzictwo Muzyki Polskiej w otwartym dostępie}
!!!IIIF:
!!!ONB-nifc:
!!!AIN: 1 canto 1 piano
!!!key: G
**kern	**fing	**kern	**fing	**dynam	**kern	**text	**text	**text	**text	**dynam
*part2	*	*part2	*	*part2	*part1	*part1	*part1	*part1	*part1	*part1
*staff3	*	*staff2	*	*staff2/3	*staff1	*staff1	*staff1	*staff1	*staff1	*
*IGacmp	*	*IGacmp	*	*	*	*	*	*	*	*
*ICklav	*	*ICklav	*	*	*ICvox	*	*	*	*	*
*Ipiano	*	*Ipiano	*	*	*Icanto	*	*	*	*	*
*I"Fortepian.	*	*I"Fortepian.	*	*	*I"Śpiew.	*	*	*	*	*
*I'	*	*I'	*	*	*I'	*	*	*	*	*
*clefF4	*	*clefG2	*	*	*clefG2	*	*	*	*	*
*k[f#]	*	*k[f#]	*	*	*k[f#]	*	*	*	*	*
*G:	*	*G:	*	*	*G:	*	*	*	*	*
*M4/4	*	*M4/4	*	*	*M4/4	*	*	*	*	*
*met(c)	*	*met(c)	*	*	*met(c)	*	*	*	*	*
!!LO:TX:a:B:t=Andante sostenuto.
4r	.	4d/	.	p	4d/	Po-	Pta-	Przez	Lecz	.
=1	=1	=1	=1	=1	=1	=1	=1	=1	=1	=1
(8GG\L	.	(4.g 4.B/	1 4	.	4.g/	-snę-	-szę-	o-	dzi-	.
8D\	.	.	.	.	.	.	.	.	.	.
8G\	.	.	.	.	.	.	.	.	.	.
8D\J)	.	8a 8c/	1 5	.	8a/	-ły	-ta,	-kno	-siaj	.
(8GG\L	.	4b 4d/	2 5	.	4b\	już	co	księ-	nam	.
8D\	.	.	.	.	.	.	.	.	.	.
8F#\	.	4a 4c/)	1 5	.	4a/	w o-	śpie-	-życ	po-	.
8D\J)	.	.	.	.	.	.	.	.	.	.
=2	=2	=2	=2	=2	=2	=2	=2	=2	=2	=2
8GG\L	.	(>2g 2B/	1 5	.	2g/	-gro-	-wa-	bla-	-go-	.
8D\	.	.	.	.	.	.	.	.	.	.
8G\	.	.	.	.	.	.	.	.	.	.
[8D\J	.	.	.	.	.	.	.	.	.	.
8D\]	.	4f# 4A/)	4	.	4f#/	-dzie	-ły	-dy	-dy	.
4D\	.	.	.	.	.	.	.	.	.	.
.	.	4g 4B/	.	.	4g/	kon-	przez	za-	nie	.
*	*below	*	*	*	*	*	*	*	*	*
8D\	1	.	.	.	.	.	.	.	.	.
=3	=3	=3	=3	=3	=3	=3	=3	=3	=3	=3
8DD/	.	(8aL 8c/	1 4	.	(8a/L	-wał-	ca-	-glą-	mą-	.
4D\	.	8bJ 8d/	1 5	.	8b/J)	.	.	.	.	.
.	.	4cc 4e/)	2 5	.	4cc\	-je,	-ły	-da	-cą	.
4D\	.	.	.	.	.	.	.	.	.	.
.	.	(8bL 8d/	1 5	.	(8b/L	brat-	bo-	w każ-	chmur-	.
4D\	.	8aJ 8c/	1 5	.	8a/J)	.	.	.	.	.
.	.	4g 4B/)	1 4	.	4g/	-ki,	-ży	-dy	-ne	.
8D\	.	.	.	.	.	.	.	.	.	.
!!LO:LB:g=original
=4	=4	=4	=4	=4	=4	=4	=4	=4	=4	=4
(8DD/L	.	2a 2f# 2d/	.	.	2a/	bzy,	dzień,	kąt;	mgły,	.
8D/	.	.	.	.	.	.	.	.	.	.
8C#X/	.	.	.	.	.	.	.	.	.	.
8D/J	.	.	.	.	.	.	.	.	.	.
8Cn/L	.	4r	.	.	4r	.	.	.	.	.
8D/	.	.	.	.	.	.	.	.	.	.
8AA/	.	4d 4c/	.	.	4d/	w uś-	już	on	śpi	.
8D/J)	.	.	.	.	.	.	.	.	.	.
=5	=5	=5	=5	=5	=5	=5	=5	=5	=5	=5
(8GG\L	.	(4.g 4.B/	.	.	4.g/	-pie-	głów-	przy-	mój	.
8D\	.	.	.	.	.	.	.	.	.	.
8G\	.	.	.	.	.	.	.	.	.	.
8D\J)	.	8a 8c/	.	.	8a/	-niu,	-ki	-szedł	kró-	.
(8GG\L	.	4b 4d/	.	.	4b\	ci-	po-	tu	-le-	.
8D\	.	.	.	.	.	.	.	.	.	.
8F#\	.	4a 4c/)	.	.	4a/	-szy,	-cho-	na	-wicz	.
8D\J)	.	.	.	.	.	.	.	.	.	.
=6	=6	=6	=6	=6	=6	=6	=6	=6	=6	=6
8GG\L	.	(>2g 2B/	.	.	2g/	chło-	-wa-	zwia-	mło-	.
8D\	.	.	.	.	.	.	.	.	.	.
8G\	.	.	.	.	.	.	.	.	.	.
[8D\J	.	.	.	.	.	.	.	.	.	.
8D\]	.	4f# 4A/)	.	.	4f#/	-dzie	-ły	-dy	-dy,	.
4D\	.	.	.	.	.	.	.	.	.	.
.	.	4g 4B/	.	.	4g/	za-	w za-	i	po-	.
8D\	1	.	.	.	.	.	.	.	.	.
=7	=7	=7	=7	=7	=7	=7	=7	=7	=7	=7
8DD/	.	(8aL 8c/	.	.	(8a/L	-le-	-cisz-	da-	-cie-	.
4D\	.	8bJ 8d/	.	.	8b/J)	.	.	.	.	.
.	.	4cc 4e/)	.	.	4cc\	-dwie	-ny	-lej	-cha	.
4D\	.	.	.	.	.	.	.	.	.	.
.	.	(8bL 8d/	.	.	(8b/L	lis-	gniaz-	pój-	mo-	.
4D\	.	8aJ 8c/	.	.	8a/J)	.	.	.	.	.
.	.	4g 4B/)	.	.	4g/	-tek	-dek	-dzie	-ja	.
8D\	.	.	.	.	.	.	.	.	.	.
!!LO:LB:g=original
=8	=8	=8	=8	=8	=8	=8	=8	=8	=8	=8
(8DD/L	.	2a 2f# 2d/	.	.	2a/	drży,	cień,	ztąd;	śpi,	.
8FF#/	.	.	.	.	.	.	.	.	.	.
8AA/	.	.	.	.	.	.	.	.	.	.
8D/J	.	.	.	.	.	.	.	.	.	.
4DD)	.	4r	.	.	4r	.	.	.	.	.
4r	.	(8bL 8g/	1 3	.	(8b\L	po-	je-	niech	a	.
.	.	8ccJ 8a/	.	.	8cc\J)	.	.	.	.	.
=9	=9	=9	=9	=9	=9	=9	=9	=9	=9	=9
8GG/	.	4dd 4b\)	.	.	4dd\	-ru-	-dy-	tyl-	uś-	.
4G\	.	.	.	.	.	.	.	.	.	.
!	!	!	!	!	!	!	!	!	!	!LO:DY:a
.	.	(4b 4g/'	1 2	<	4b\	-sza	-nie	-ko	-miech	<
4G\	.	.	.	.	.	.	.	.	.	.
.	.	4cc 4a\'	.	.	4cc\	wiatr	przez	dzie-	słod-	.
4G\	.	.	.	.	.	.	.	.	.	.
.	.	4dd 4b\')	.	[[	4dd\	ga-	zam-	-cko	-ki	[[
8G\	.	.	.	.	.	.	.	.	.	.
=10	=10	=10	=10	=10	=10	=10	=10	=10	=10	=10
8GG/	.	(4.ee 4.cc\	.	>	4.ee\	-łąz-	-knię-	bro-	pod-	.
4G\	.	.	.	.	.	.	.	.	.	.
4G\	.	8dd 8b\	.	.	8dd\	-ki	-te	-i	-czas	.
.	.	4cc 4a\)	.	.	4cc\	drzew	drzwi	gdzie	snu	.
4G\	.	.	.	]	.	.	.	.	.	.
*	*	*	*below	*	*	*	*	*	*	*
.	.	(8aL 8f#/	3 2	.	(8a/L	pół-	świer-	wnet	roz-	.
8G\	.	8bJ 8g/	4 1	.	8b/J)	.	.	.	.	.
=11	=11	=11	=11	=11	=11	=11	=11	=11	=11	=11
*	*	*	*above	*	*	*	*	*	*	*
8r	.	4cc 4a\)	3 5	.	4cc\	-sen-	-ka-	księ-	-ja-	.
(8DD/L	.	.	.	.	.	.	.	.	.	.
!	!	!	!	!LO:HP:t=dim.	!	!	!	!	!	!LO:HP:t=dim.
8EE/	.	(4cc 4a\'	2 4	>	4cc\	-ny	-nie	-życ	-śnia	>
8FF#/)J	.	.	.	.	.	.	.	.	.	.
(8GG/L	.	4b 4g/'	.	.	4b\	bu-	świersz-	chmu-	bu-	.
8AA/	.	.	.	.	.	.	.	.	.	.
8BB/	.	4dd 4g\')	.	.	4dd\	-dząc	-cza	-rzy	-zię	.
8C/)J	.	.	.	.	.	.	.	.	.	.
=12	=12	=12	=12	=12	=12	=12	=12	=12	=12	=12
(8D/L	1	2a 2f#/	.	.	2a/	śpiew:	brzmi:	się:	mu:	.
8E/	2	.	.	.	.	.	.	.	.	.
8D/	1	.	.	.	.	.	.	.	.	.
8C#/J	.	.	.	.	.	.	.	.	.	.
8D/L	.	2r	.	.	2r	.	.	.	.	.
8AA/	.	.	.	.	.	.	.	.	.	.
8FF#/	.	.	.	.	.	.	.	.	.	.
8DD)J	.	.	.	.	.	.	.	.	.	.
!!LO:LB:g=original
=13	=13	=13	=13	=13	=13	=13	=13	=13	=13	=13
*	*	*^	*	*	*	*	*	*	*	*
!	!	!	!	!	!	!	!	!	!	!	!LO:DY:a:rj
!	!	!	!	!	!	!	!	!	!	!	!LO:HP:a
(4GG/	3	(4.dd/	8b\L	.	p >	(4.dd\	Lu-	.	.	.	p >
.	.	.	8d\	.	.	.	.	.	.	.	.
4BB/	.	.	8g\	.	.	.	.	.	.	.	.
.	.	8b/	8d\J	.	.	8b\)	.	.	.	.	.
2D\)	.	2a/)	8f#\L	.	]	2a/	-li,	.	.	.	]
.	.	.	8d\	.	.	.	.	.	.	.	.
.	.	.	8f#\	.	.	.	.	.	.	.	.
.	.	.	8d\J	.	.	.	.	.	.	.	.
=14	=14	=14	=14	=14	=14	=14	=14	=14	=14	=14	=14
!	!	!	!	!	!	!	!	!	!	!	!LO:DY:a
(4GG/	5	(4.dd/	8b\L	.	.	(4.dd\	lu-	.	.	.	>
.	.	.	8d\	.	.	.	.	.	.	.	.
4BB/	.	.	8g\	.	.	.	.	.	.	.	.
.	.	8b/	8d\J	.	.	8b\)	.	.	.	.	]
2D\)	.	2a/)	8f#\L	.	.	2a/	-li,	.	.	.	.
.	.	.	8d\	.	.	.	.	.	.	.	.
.	.	.	8f#\	.	.	.	.	.	.	.	.
.	.	.	8d\J	.	.	.	.	.	.	.	.
=15	=15	=15	=15	=15	=15	=15	=15	=15	=15	=15	=15
(8GG/L	.	(>4.b 4.d/	2ryy	1 5	.	4.b\	lu-	.	.	.	.
8D/J	.	.	.	.	.	.	.	.	.	.	.
4G\)	.	.	.	.	.	.	.	.	.	.	.
!	!	!	!	!	!	!	!	!	!	!	!LO:DY:a
.	.	8a 8f#/)	.	.	<	8a/	-li	.	.	.	<
2G 2C\	4	(8g/L	2e\	1 2	.	(8g/L	śpij	.	.	.	.
.	.	8a/	.	.	.	8a/J)	.	.	.	.	.
.	.	8b/	.	.	.	(8b\L	ma-	.	.	.	.
.	.	8cc/J)	.	.	[[	8cc\J)	.	.	.	.	[[
*	*	*v	*v	*	*	*	*	*	*	*	*
=16	=16	=16	=16	=16	=16	=16	=16	=16	=16	=16
*^	*	*	*	*	*	*	*	*	*	*
(8BB\L	2ryy	.	4dd 4g\	2 5	.	4dd\	-leń-	.	.	.	.
!	!	!	!	!	!LO:HP:t=dim.	!	!	!	!	!	!
8G\J	.	.	.	.	>	.	.	.	.	.	.
!	!	!	!	!	!	!	!	!	!	!	!LO:HP:a:t=dim.
4E\	.	3	(8gL 8B/	1 4	.	(8g/L	-ki	.	.	.	>
.	.	.	8aJ 8c/	1 5	.	8a/J)	.	.	.	.	.
8D/L	2D\	.	4.b 4.d/	2 5	.	4.b\	ci-	.	.	.	.
8G/J	.	.	.	.	.	.	.	.	.	.	.
4F#/)	.	.	.	.	.	.	.	.	.	.	.
.	.	.	8a 8c/)	.	.	8a/	-cho	.	.	.	.
*v	*v	*	*	*	*	*	*	*	*	*	*
=17	=17	=17	=17	=17	=17	=17	=17	=17	=17	=17
(8G\L	.	2g 2B/	.	.	2g/	śpij!	.	.	.	.
8D\	2	.	.	.	.	.	.	.	.	.
8BB\	4	.	.	.	.	.	.	.	.	.
8D\J	.	.	.	.	.	.	.	.	.	.
4GG/)	.	4r	.	.	4r	.	.	.	.	.
==	==	==	==	==	==	==	==	==	==	==
*-	*-	*-	*-	*-	*-	*-	*-	*-	*-	*-
!!!system-decoration: s1{(s2,s3)}
!!!RDF**kern: > = above
!!!RDF**kern: < = below
!!!RDF**kern: N = linked
!!!ENC: Andrzej Gręziak
!!!EED: Katarzyna Serwa
!!!END: 2025-03-25
!!!EEV: 2025-03-27
